icon-themes/breeze_svg/svtools/res/ed02.svg

<svg viewBox="0 0 11 11" xmlns="http://www.w3.org/2000/svg"><path d="m7.2988281 1-3.8339843 3.8339844-2.4648438 2.4648437v2.7011719h2.7011719l6.2988281-6.2988281zm-1.5371093 2.6171875 1.6210937 1.6210937-2.3808594 2.3808594v-.5058594l-.7597656.015625h-.7773437v-.7753906-.4394531l1.0820312-1.0800781zm-3.0566407 3.0566406v1.2148438h.7773438.7421875l.0175781.4902343-.8105469.8105469h-1.0800781l-.5410156-.5410156v-1.0800781z" fill="#4d4d4d"/></svg>

<svg xmlns="http://www.w3.org/2000/svg" viewBox="0 0 11 11">
        <path
           style="fill:#4d4d4d"
           d="M 7.2988281 1 L 3.4648438 4.8339844 L 1 7.2988281 L 1 10 L 3.7011719 10 L 10 3.7011719 L 7.2988281 1 z M 5.7617188 3.6171875 L 7.3828125 5.2382812 L 5.0019531 7.6191406 L 5.0019531 7.1132812 L 4.2421875 7.1289062 L 3.4648438 7.1289062 L 3.4648438 6.3535156 L 3.4648438 5.9140625 L 4.546875 4.8339844 L 5.7617188 3.6171875 z M 2.7050781 6.6738281 L 2.7050781 7.8886719 L 3.4824219 7.8886719 L 4.2246094 7.8886719 L 4.2421875 8.3789062 L 3.4316406 9.1894531 L 2.3515625 9.1894531 L 1.8105469 8.6484375 L 1.8105469 7.5683594 L 2.7050781 6.6738281 z "
           />
</svg>
